X:1
T:Title
L:1/8
M:4/4
K:Bb
V:1 treble nm="Grand Piano"
V:1
 z4 z2 D2 | B2 A2 G2 FE | D6 D2 | B2 A2 GGDF | E6 C2 | A2 G2 ^F2 ED | C2 C4 C2 | D3 D ^F2 A2 | %8
 G6 D2 | B3 A G2 D2 | B3 A G2 D2 | FEED DCC=B, | C6 C2 | A3 G ^F2 C2 | A3 G ^F2 CD | E2 E2 FEED | %16
 D6 D2 | B3 A G2 D2 | B3 A G2 D2 | FEED DCC=B, | C6 C2 | A3 G ^F2 C2 | A3 G ^F2 CD | E2 E2 FEED | %24
 D6 D2 | E2 D2 E2 D2 | B2 A2 G3 C | D2 C2 D2 C2 | A2 G2 F3[K:bass] B, | C2 B,2 C2 B,2 | G2 F2 E4 | %31
 A,2 B,2 C2 D2 | E2 F2 E2 D2- | D6 D2 | E2 D2 E2 D2 | B2 A2 G3 C | D2 C2 D2 C2 | %37
 A2 G2 F3[K:bass] B, | C2 B,2 C2 B,2 | G2 F2 E4 | A,2 B,2 C2 D2 | B2 ^F2 G4- | G4 B3 c | %43
 d2 d2 d3 c | edcB A3 B | c2 c2 c2 cB | dcBA G2 GA | B2 B2 BBBA | cBAG ^F3 G | A2 B2 c2 d2 | %50
 e2 d2 G3 G | G3 G G3 B | AG F2 F3 F | F2 F2 F2 FA | GF E2 E2 E2 | E2 E2 EEEG | FE D2 C3 E | %57
 D2 ^F2 B2 F2 | A2 G4 D2 | B2 A2 G2 FE | D6 D2 | B2 A2 GGDF | E6 C2 | A2 G2 ^F2 ED | C2 C4 C2 | %65
 D3 D ^F2 A2 | G6 D2 | B3 A G2 D2 | B3 A G2 D2 | FEED DCC=B, | C6 C2 | A3 G ^F2 C2 | A3 G ^F2 CD | %73
 E2 E2 FEED | D6 D2 | E2 D2 E2 D2 | B2 A2 G3 C | D2 C2 D2 C2 | A2 G2 F3[K:bass] B, | %79
 C2 B,2 C2 B,2 | G2 F2 E4 | A,2 B,2 C2 D2 | B2 ^F2 G4- | G4 B3 c | d2 d2 d3 c | edcB A3 B | %86
 c2 c2 c2 cB | dcBA G2 GA | B2 B2 BBBA | cBAG ^F3 G | A2 B2 c2 d2 | e2 d2 G3 G | G3 G G3 B | %93
 AG F2 F3 F | F2 F2 F2 FA | GF E2 E2 E2 | E2 E2 EEEG | FE D2 C3 E | D2 ^F2 B2 F2 | A2 G4 D2 | %100
 A3 G ^F2 CD | D2 ^F2 B2 F2 | G6 z2 |] %103

